korla-light/actions/symbolic/system-suspend-symbolic.svg

<svg style="clip-rule:evenodd;fill-rule:evenodd;stroke-linejoin:round;stroke-miterlimit:2" version="1.1" viewBox="0 0 16 16" xmlns="http://www.w3.org/2000/svg">
 <path d="m8 2c-3.292 0-6 2.708-6 6s2.708 6 6 6 6-2.708 6-6-2.708-6-6-6zm0 1.136c2.668 0 4.864 2.196 4.864 4.864s-2.196 4.864-4.864 4.864-4.864-2.196-4.864-4.864 2.196-4.864 4.864-4.864z" style="fill-rule:nonzero;fill:rgb(68,68,68)"/>
 <path d="m6 7h4c0.554 0 1 0.446 1 1s-0.446 1-1 1h-4c-0.554 0-1-0.446-1-1s0.446-1 1-1z" style="fill-rule:nonzero;fill:rgb(68,68,68)"/>
</svg>

<svg xmlns="http://www.w3.org/2000/svg" width="16" height="16" version="1.1">
 <path style="fill:#444444" d="M 8 2 A 6 6 0 0 0 2 8 A 6 6 0 0 0 8 14 A 6 6 0 0 0 14 8 A 6 6 0 0 0 8 2 z M 8 4 A 4 4 0 0 1 12 8 A 4 4 0 0 1 8 12 A 4 4 0 0 1 4 8 A 4 4 0 0 1 8 4 z"/>
 <path style="fill:#444444" d="M 6,7 H 10 C 10.554,7 11,7.446 11,8 11,8.554 10.554,9 10,9 H 6 C 5.446,9 5,8.554 5,8 5,7.446 5.446,7 6,7 Z"/>
</svg>
